X:5
T:Bats
M:4/4
L:1/4
C:Taz Tarry
S:Copyright, B.Tarry 22nd. July 1986
Q:1/4=240
K:D
|:BA/2F/2EB|BA/2F/2EB|d2c=c|BAE2|BA/2F/2EE|BA/2F/2EE|B2gf/2g/2|gcd2:|
|:eA/2A/2fA/2A/2|Aa^ga|eA/2A/2fA/2A/2|ecB2|eA/2A/2fA/2A/2|ea^ga|a(3f/2f/2f/2ge|fcd2:|

